X: 68
T: REELS: Walter Sammon's Grandma Set
T: Walter Sammon's Grandmother
C: C: Trad.; S: ThZCh + Patrick Street / Martin Hayes / Mary Bergin
C: Set Leaders: Oliushka, Anton
Z: Anton Zille ed., Oleg Naumov arr.; shanachie / Bregolas / Bregolas at The Session
N: https://thesession.org/members/26966/sets/76523
R: Reel
M: 4/4
L: 1/8
Q: 1/2=100
K: Dmaj
"D"FAAB A2dB|AFDE "A"FEE2|"D"FAAB A2dB|AF"G"EG "A"FDD2|
"D"FAAB ABdB|AFDE "A"FEE2|"D"FAAB A2dB|"G"AF"A"EG "D"FDD2||
"D"FAd"Bm"A BA"D"dA|FAdA B"A"EE2|"D"FAdA BAdB|AF"A"EG "D"FDD2|
"D"FAd"G"A BA"D/F#"dA|FAdA BEE2|"G"dcBA BcdB|"A"AFEG FDD2||
T: Broken Pledge (Ddor)
K: Ddor
|:"D5"dcAG ADDB|cAGE EDCE|DEFG Addc|A/B/A "Cadd9"Gc Aefe|
"D5"dcAG E/F/G AB|cAGE EDCE|"Cadd9"DEFG A"Am"ddc|A/B/A GE "(G5)"ED D2:||
|:"D5 (Bb)"dcAG Acde|"Bb"f2 df ecAB|"Cadd9"cAGE G2 cd|ec"(Am)"~c2 eage|
"D5 (G5)"dcAG Acde|"Bb (G5)"~f2 df ecAG|"Cadd9"~F3E FGAB|cA"Am"GE ED D2:||
T: Blackhaired Lass
K: Amix
"A5"cAAB cdec|d2 gd "G"BGGd|"A5"cA~A2 cdec|dfec "D"AddB|
"A5"cA~A2 Acec|dBgd "G"BGGd|"A5"cA~A2 B/c/d ec|dfec "D"A3 A||
"A5"B/c/d ef "G"g2 eg|~f2 df gfed|"A5"B/c/d ef "G"gea"D"g|fd"G"ec A2~A2|
"A5"B/c/d ef "G"g2 e/f/g|fedc defg|"(D)"afge "Em"fdec|df"G"ec AddB||

